components/icon/svg/24/seat_elderly.svg

<?xml version="1.0" encoding="UTF-8"?>
<svg width="24px" height="24px" viewBox="0 0 24 24" version="1.1" xmlns="http://www.w3.org/2000/svg" xmlns:xlink="http://www.w3.org/1999/xlink">
    <!-- Generator: Sketch 64 (93537) - https://sketch.com -->
    <title>ic-db_seat_elderly_24</title>
    <desc>Created with Sketch.</desc>
    <g id="Symbols" stroke="none" stroke-width="1" fill="none" fill-rule="evenodd">
        <g id="24dp-Icon/Seat/Elderly" fill="#282D37">
            <path d="M2,4.013 C2,3.4476 2.4476,3 2.9894,3 C4.8033,3 6.0012,4.2721 6.0012,6.2509 L6.0012,8.9128 L7.6302,17.04 C7.7496,17.6286 8.2662,18 8.8551,18 L12.0118,18 C12.5536,18 13.0012,18.5006 13.0012,19.0424 C13.0012,19.6078 12.5536,20 12.0118,20 L8.8551,20 C7.3004,20 5.9818,18.9481 5.6749,17.4405 L4.0695,9.4547 C4.0216,9.2192 3.9988,9.0071 3.9988,8.7951 L3.9988,6.2509 C3.9988,5.3793 3.649,5.0024 2.9894,5.0024 C2.4476,5.0024 2,4.5548 2,4.013 Z M8.384,10.02 C8.384,9.4782 8.8316,9 9.3734,9 L10.3628,9 C11.1999,9 11.9225,9.407 12.4153,10.0043 L14.7828,10.0043 C15.3569,9.9965 15.8045,10.4441 15.8045,11.0094 C15.8045,11.5512 15.3569,11.9988 14.7828,12.0004 L12.998,12.0004 L12.998,14 L15.5453,14 C16.04,14 16.4717,14.4033 16.5347,14.9199 L17.265,20.9034 C17.3325,21.4563 16.9789,22 16.2756,22 C15.7574,22 15.3246,21.6557 15.2627,21.139 L14.6502,16 L12,16 C11.4346,16 11.002,15.5401 11.002,15 L11.002,11.6482 C11.002,11.3502 10.7928,11 10.3679,11 L9.3816,11 C8.8316,10.9954 8.384,10.5854 8.384,10.02 Z M10,5.0024 C10,3.8952 10.8951,3 12.0023,3 C13.1095,3 14.0047,3.8952 14.0047,5.0024 C14.0047,6.1095 13.1095,7.0047 12.0023,7.0047 C10.8951,7.0047 10,6.1095 10,5.0024 Z M16.9823,11.0094 C16.9823,10.4676 17.4299,9.9965 17.9953,9.9965 L18.9847,9.9965 C20.6572,9.9965 22,11.3391 22,12.9647 L22,20.9976 C22,21.563 21.5524,22 20.987,22 C20.4452,22 19.9976,21.563 19.9976,20.9976 L19.9976,12.9882 C19.9976,12.4219 19.5501,11.9988 18.9847,11.9988 L17.9953,11.9988 C17.4299,11.9988 16.9823,11.5748 16.9823,11.0094 Z" id="🎨-Color"></path>
        </g>
    </g>
</svg>

<svg width="24" height="24" xmlns="http://www.w3.org/2000/svg"><path d="M2 4.013A1 1 0 012.99 3C4.802 3 6 4.272 6 6.25v2.663l1.63 8.127c.119.589.635.96 1.224.96h3.157c.542 0 .99.5.99 1.042 0 .566-.448.958-.99.958H8.855c-1.555 0-2.873-1.052-3.18-2.56L4.069 9.456a3.256 3.256 0 01-.07-.66V6.251c0-.872-.35-1.249-1.01-1.249A.995.995 0 012 4.013zm6.384 6.007c0-.542.448-1.02.99-1.02h.989c.837 0 1.56.407 2.052 1.004h2.368a.996.996 0 011.022 1.005c0 .542-.448.99-1.022.991h-1.785v2h2.547c.495 0 .927.403.99.92l.73 5.983c.067.553-.286 1.097-.99 1.097-.518 0-.95-.344-1.012-.861L14.65 16H12a.998.998 0 01-.998-1v-3.352c0-.298-.21-.648-.634-.648h-.986c-.55-.005-.998-.415-.998-.98zM10 5.002A2 2 0 0112.002 3a2 2 0 012.003 2.002 2 2 0 01-2.003 2.003A2 2 0 0110 5.002zm6.982 6.007a1.02 1.02 0 011.013-1.013h.99c1.672 0 3.015 1.343 3.015 2.969v8.033A.997.997 0 0120.987 22a.991.991 0 01-.99-1.002v-8.01c0-.566-.447-.99-1.012-.99h-.99c-.565 0-1.013-.423-1.013-.989z" fill="#282D37" fill-rule="evenodd"/></svg>
